packages/foundations/assets/icons/functional/images/file/cloud_upload.svg

<svg xmlns="http://www.w3.org/2000/svg" width="32" height="32" fill="none"><path fill="#1A1C1F" fill-rule="evenodd" d="M18.267 4.616c-1.011.188-2.082.629-3.002 1.236-.45.298-1.473 1.253-1.806 1.688l-.159.206-.397-.093c-.597-.142-1.778-.168-2.452-.055-2.421.405-4.422 2.134-5.145 4.448l-.156.499-.482.36c-1.705 1.274-2.646 3.072-2.654 5.068-.002.752.055 1.135.28 1.867.592 1.924 2.24 3.559 4.293 4.257.901.306 1.264.356 2.59.356h1.204l.197-.149c.554-.423.54-1.248-.028-1.624-.218-.144-.24-.147-1.293-.18-1.323-.041-1.831-.149-2.67-.568a4.3 4.3 0 0 1-1.22-.862 4.6 4.6 0 0 1-1.243-2.083c-.126-.474-.126-1.5 0-1.974.295-1.107 1.112-2.17 2.118-2.754.533-.31.713-.509.794-.88.2-.913.35-1.296.727-1.864a4.5 4.5 0 0 1 2.605-1.86c.897-.228 1.735-.186 2.68.135.618.209.807.223 1.123.079.228-.104.259-.141.774-.931.511-.786 1.414-1.55 2.314-1.958 1.863-.845 4.153-.523 5.767.81 1.41 1.164 2.108 2.917 1.928 4.841-.093.997-.018 1.15.798 1.625 1.012.588 1.828 1.647 2.124 2.757.126.474.126 1.5 0 1.974-.407 1.528-1.631 2.754-3.265 3.269-.586.185-1.118.25-2.042.252-1.023.001-1.265.1-1.474.599-.156.375-.059.869.219 1.113.294.258.392.273 1.641.245 1.237-.028 1.556-.074 2.365-.338 1.728-.564 3.247-1.836 4.01-3.36.749-1.497.867-3.126.341-4.701-.395-1.182-1.252-2.354-2.294-3.139l-.39-.293-.001-.65c-.001-3.434-2.289-6.369-5.653-7.251-.558-.146-.703-.162-1.626-.178-.736-.013-1.131.003-1.44.061m-2.72 9.996c-.133.066-.99.884-2.278 2.174-2.362 2.366-2.414 2.437-2.221 3.006.154.453.484.688.966.688.412 0 .592-.137 1.866-1.425l1.107-1.119v4.325c0 2.854.019 4.394.056 4.527a.95.95 0 0 0 .669.656c.262.076.314.076.576 0a.95.95 0 0 0 .669-.656c.037-.133.056-1.671.056-4.521v-4.319l1.187 1.181c.653.649 1.268 1.221 1.368 1.271.276.138.79.092 1.031-.092.21-.16.36-.438.401-.741.057-.43-.085-.603-2.318-2.831-1.393-1.389-2.134-2.091-2.267-2.147a1.1 1.1 0 0 0-.868.023"/></svg>

<svg width="32" height="32" viewBox="0 0 32 32" fill="none" xmlns="http://www.w3.org/2000/svg"><path d="M18.267 4.616 C 17.256 4.804,16.185 5.245,15.265 5.852 C 14.815 6.150,13.792 7.105,13.459 7.540 L 13.300 7.746 12.903 7.653 C 12.306 7.511,11.125 7.485,10.451 7.598 C 8.030 8.003,6.029 9.732,5.306 12.046 L 5.150 12.545 4.668 12.905 C 2.963 14.179,2.022 15.977,2.014 17.973 C 2.012 18.725,2.069 19.108,2.294 19.840 C 2.886 21.764,4.534 23.399,6.587 24.097 C 7.488 24.403,7.851 24.453,9.177 24.453 L 10.381 24.453 10.578 24.304 C 11.132 23.881,11.118 23.056,10.550 22.680 C 10.332 22.536,10.310 22.533,9.257 22.500 C 7.934 22.459,7.426 22.351,6.587 21.932 C 6.075 21.677,5.796 21.480,5.367 21.070 C 4.778 20.507,4.328 19.753,4.124 18.987 C 3.998 18.513,3.998 17.487,4.124 17.013 C 4.419 15.906,5.236 14.843,6.242 14.259 C 6.775 13.949,6.955 13.750,7.036 13.379 C 7.236 12.466,7.386 12.083,7.763 11.515 C 8.373 10.598,9.320 9.922,10.368 9.655 C 11.265 9.427,12.103 9.469,13.048 9.790 C 13.666 9.999,13.855 10.013,14.171 9.869 C 14.399 9.765,14.430 9.728,14.945 8.938 C 15.456 8.152,16.359 7.388,17.259 6.980 C 19.122 6.135,21.412 6.457,23.026 7.790 C 24.436 8.954,25.134 10.707,24.954 12.631 C 24.861 13.628,24.936 13.781,25.752 14.256 C 26.764 14.844,27.580 15.903,27.876 17.013 C 28.002 17.487,28.002 18.513,27.876 18.987 C 27.469 20.515,26.245 21.741,24.611 22.256 C 24.025 22.441,23.493 22.506,22.569 22.508 C 21.546 22.509,21.304 22.608,21.095 23.107 C 20.939 23.482,21.036 23.976,21.314 24.220 C 21.608 24.478,21.706 24.493,22.955 24.465 C 24.192 24.437,24.511 24.391,25.320 24.127 C 27.048 23.563,28.567 22.291,29.330 20.767 C 30.079 19.270,30.197 17.641,29.671 16.066 C 29.276 14.884,28.419 13.712,27.377 12.927 L 26.987 12.634 26.986 11.984 C 26.985 8.550,24.697 5.615,21.333 4.733 C 20.775 4.587,20.630 4.571,19.707 4.555 C 18.971 4.542,18.576 4.558,18.267 4.616 M15.547 14.612 C 15.414 14.678,14.557 15.496,13.269 16.786 C 10.907 19.152,10.855 19.223,11.048 19.792 C 11.202 20.245,11.532 20.480,12.014 20.480 C 12.426 20.480,12.606 20.343,13.880 19.055 L 14.987 17.936 14.987 22.261 C 14.987 25.115,15.006 26.655,15.043 26.788 C 15.131 27.104,15.379 27.347,15.712 27.444 C 15.974 27.520,16.026 27.520,16.288 27.444 C 16.621 27.347,16.869 27.104,16.957 26.788 C 16.994 26.655,17.013 25.117,17.013 22.267 L 17.013 17.948 18.200 19.129 C 18.853 19.778,19.468 20.350,19.568 20.400 C 19.844 20.538,20.358 20.492,20.599 20.308 C 20.809 20.148,20.959 19.870,21.000 19.567 C 21.057 19.137,20.915 18.964,18.682 16.736 C 17.289 15.347,16.548 14.645,16.415 14.589 C 16.145 14.477,15.803 14.486,15.547 14.612 " fill="#1A1C1F" stroke="none" fill-rule="evenodd"></path></svg>
